public/images/menu-lines.svg

<svg fill="none" height="980" viewBox="0 0 507 980" width="507" xmlns="http://www.w3.org/2000/svg"><g stroke="#007bff"><path d="m1230.66 463.851.01.011 107.45 178.574c25.42 42.251 26.27 94.882 2.21 137.926l-101.67 181.928v.012l-100.93 182.348c-23.88 43.14-69.03 70.18-118.34 70.87l-208.389 2.92h-.014l-208.376 3.77c-49.301.89-95.303-24.69-120.553-67.05l-106.719-179.012-.007-.011-107.452-178.575c-25.424-42.25-26.268-94.882-2.212-137.926l101.67-181.928.007-.012 100.923-182.343c23.879-43.143 69.037-70.189 118.342-70.879l208.39-2.915h.013l208.377-3.769c49.3-.892 95.3 24.693 120.55 67.047z" opacity=".04" stroke-width="6.58471"/><g stroke-width="3.29235"><path d="m1413.53 354.33v.006l170.49 283.33c25.73 42.757 26.58 96.019 2.24 139.578l-161.32 288.656-160.13 289.31c-24.16 43.66-69.86 71.03-119.76 71.73l-330.633 4.63h-.007l-330.615 5.98c-49.892.9-96.446-24.99-121.998-67.85l-169.323-284.03-.004-.01-170.4866-283.328c-25.72765-42.756-26.58186-96.018-2.2386-139.578l161.3132-288.652.004-.006 160.128-289.3114c24.164-43.6591 69.863-71.0297 119.759-71.7276l330.637-4.62449.006-.00011 330.618-5.98062c49.89-.90253 96.44 24.98852 121.99 67.85032z" opacity=".04"/><path d="m181.023 374.747 159.159-289.3036c24.438-44.4196 70.876-72.2643 121.57-72.8943l331.07-4.11426" opacity=".2"/></g></g></svg>

<svg width="507" height="980" viewBox="0 0 507 980" fill="none" xmlns="http://www.w3.org/2000/svg">
<path opacity="0.04" d="M1230.66 463.851L1230.67 463.862L1338.12 642.436C1363.54 684.687 1364.39 737.318 1340.33 780.362L1238.66 962.29L1238.66 962.302L1137.73 1144.65C1113.85 1187.79 1068.7 1214.83 1019.39 1215.52L811.001 1218.44L810.987 1218.44L602.611 1222.21C553.31 1223.1 507.308 1197.52 482.058 1155.16L375.339 976.148L375.332 976.137L267.88 797.562C242.456 755.312 241.612 702.68 265.668 659.636L367.338 477.708L367.345 477.696L468.268 295.353C492.147 252.21 537.305 225.164 586.61 224.474L795 221.559L795.013 221.559L1003.39 217.79C1052.69 216.898 1098.69 242.483 1123.94 284.837L1230.66 463.851Z" stroke="#007BFF" stroke-width="6.58471"/>
<path opacity="0.04" d="M1413.53 354.33L1413.53 354.336L1584.02 637.666C1609.75 680.423 1610.6 733.685 1586.26 777.244L1424.94 1065.9L1424.94 1065.9L1264.81 1355.21C1240.65 1398.87 1194.95 1426.24 1145.05 1426.94L814.417 1431.57L814.41 1431.57L483.795 1437.55C433.903 1438.45 387.349 1412.56 361.797 1369.7L192.474 1085.67L192.47 1085.66L21.9834 802.332C-3.74425 759.576 -4.59846 706.314 19.7448 662.754L181.058 374.102L181.062 374.096L341.19 84.7846C365.354 41.1255 411.053 13.7549 460.949 13.057L791.586 8.43251L791.592 8.4324L1122.21 2.45178C1172.1 1.54925 1218.65 27.4403 1244.2 70.3021L1413.53 354.33Z" stroke="#007BFF" stroke-width="3.29235"/>
<path opacity="0.2" d="M181.023 374.747L340.182 85.4434C364.62 41.0238 411.058 13.1791 461.752 12.5491L792.822 8.43484" stroke="#007BFF" stroke-width="3.29235"/>
</svg>
